X: 628
T:Young Catherine
M:C
L:1/8
B:O'Neill's 628
N:"Moderate."
Z:Transcribed by Ted Hastings, ted@hastings.nu
K:Am
A>G| E2 (A>B) A3 B|c2 B>A A2 Bc|d3 e (dB) (A>B)|G3 A B2 (A>G)|
F2 (A>B) A3 B|c2 (B>c) A2 (a>g)|e (dc/2B/2) (c>dB>c)|A4 e2||
(A>B)|cde^f g3 a|(ge)(d>e) g2 (d>c)|B2 (g>e) (dc)(B>c)|G3 A B2 AG|
c2 B>A A3 E|ABcd (c/2d/2e) dc|(d>e^ga) (=ge)(d>B)|A4 e2||


